public/icons/logo-blue.svg

<svg width="224" height="40" viewBox="0 0 224 40" fill="none" xmlns="http://www.w3.org/2000/svg">
<g clip-path="url(#clip0_1799_26152)">
<path d="M18.1931 25.7567C18.1931 27.1668 17.8373 28.5014 17.127 29.7633C16.4167 31.0252 15.3122 32.0464 13.8135 32.8281C12.3148 33.6099 10.381 34.0001 8.01325 34.0001C6.82806 34.0001 5.7897 33.9472 4.89552 33.84C4.00134 33.7329 3.16933 33.5583 2.39949 33.3162C1.62965 33.0742 0.829385 32.7567 0.00134277 32.3652V26.1112C1.41007 26.8215 2.83203 27.3638 4.26589 27.7369C5.69843 28.1099 6.99605 28.2964 8.15743 28.2964C8.85584 28.2964 9.42727 28.2131 9.87171 28.0477C10.3162 27.8824 10.6442 27.6535 10.8572 27.3638C11.0701 27.0742 11.1773 26.7395 11.1773 26.3599C11.1773 25.9101 11.0199 25.5279 10.7064 25.2144C10.3929 24.9009 9.89156 24.5715 9.20505 24.2289C8.51854 23.885 7.61246 23.4591 6.48679 22.9498C5.5278 22.5001 4.66007 22.0385 3.88362 21.5636C3.10716 21.09 2.44446 20.5477 1.8942 19.9379C1.34394 19.3281 0.919332 18.6138 0.624359 17.7964C0.328062 16.9789 0.179914 16.0133 0.179914 14.9009C0.179914 13.2302 0.59129 11.8308 1.41404 10.6985C2.23679 9.56755 3.38626 8.71702 4.86113 8.14956C6.336 7.58078 8.03838 7.29639 9.9696 7.29639C11.6627 7.29639 13.1879 7.48554 14.545 7.86517C15.9008 8.2448 17.1178 8.67602 18.1958 9.16279L16.0463 14.5821C14.9326 14.0728 13.8373 13.6668 12.7593 13.3652C11.6812 13.0636 10.6799 12.9115 9.75664 12.9115C9.15214 12.9115 8.65743 12.9855 8.27251 13.1337C7.88759 13.2818 7.6032 13.4802 7.41933 13.7289C7.23547 13.9776 7.1442 14.262 7.1442 14.5821C7.1442 14.9855 7.30161 15.3467 7.6151 15.6654C7.92859 15.9855 8.45637 16.3321 9.19579 16.7051C9.93653 17.0781 10.9458 17.5609 12.2249 18.1535C13.4921 18.7223 14.5701 19.3347 15.459 19.9922C16.3479 20.6496 17.0252 21.4379 17.4934 22.3546C17.9617 23.2726 18.1958 24.4062 18.1958 25.7567H18.1931Z" fill="#1574E5"/>
<path d="M30.8611 13.1602C32.8148 13.1602 34.5027 13.5014 35.9246 14.1813C37.3466 14.8625 38.4418 15.8837 39.2117 17.2461C39.9815 18.6086 40.3664 20.3136 40.3664 22.3625V25.4538H27.9471C28.0066 26.508 28.4008 27.3731 29.1283 28.0477C29.8572 28.7223 30.9312 29.061 32.3532 29.061C33.6085 29.061 34.7606 28.9366 35.8082 28.6879C36.8558 28.4393 37.9365 28.0543 39.0503 27.5332V32.5252C38.0794 33.0345 37.0185 33.4075 35.8704 33.6443C34.7209 33.8811 33.2699 34.0001 31.5172 34.0001C29.4921 34.0001 27.6799 33.639 26.0807 32.9168C24.4815 32.1945 23.2236 31.0755 22.3056 29.5583C21.3876 28.0424 20.9286 26.094 20.9286 23.7131C20.9286 21.3321 21.3426 19.3096 22.172 17.7527C23.0013 16.1959 24.1614 15.0411 25.6548 14.2885C27.1468 13.5358 28.8823 13.1602 30.8598 13.1602H30.8611ZM31.1098 17.8863C30.2923 17.8863 29.6085 18.1443 29.0582 18.6588C28.508 19.1747 28.1852 19.9829 28.09 21.0834H34.0595C34.0476 20.4908 33.9286 19.9525 33.7037 19.467C33.4789 18.9816 33.1495 18.5967 32.7183 18.3123C32.2857 18.0279 31.75 17.8863 31.1098 17.8863Z" fill="#1574E5"/>
<path d="M51.2394 33.6455H44.2924V6H51.2394V33.6455Z" fill="#1574E5"/>
<path d="M63.0014 33.6455H56.0543V6H63.0014V33.6455Z" fill="#1574E5"/>
<path d="M79.7898 13.0529C78.9604 13.0529 78.2197 13.2275 77.5689 13.5767C76.9167 13.9259 76.3612 14.4325 75.8982 15.0952C75.4366 15.7592 75.0834 16.5674 74.8413 17.5198C74.598 18.4735 74.4776 19.5542 74.4776 20.7619C74.4776 22.3968 74.6853 23.7711 75.0993 24.8835C75.5133 25.9973 76.1443 26.8373 76.9908 27.406C77.8374 27.9748 78.9009 28.2592 80.18 28.2592C81.34 28.2592 82.4564 28.0992 83.5292 27.7791C84.6006 27.4589 85.6813 27.074 86.7712 26.6243V32.5582C85.6218 33.0674 84.4472 33.4351 83.2448 33.66C82.0424 33.8849 80.766 33.9973 79.4154 33.9973C76.5966 33.9973 74.2898 33.4378 72.4948 32.3187C70.6998 31.1997 69.3797 29.6455 68.5331 27.6547C67.6866 25.6653 67.2633 23.3558 67.2633 20.7261C67.2633 18.7605 67.5384 16.9589 68.09 15.3253C68.6403 13.6904 69.4498 12.2724 70.5146 11.0701C71.5808 9.86767 72.8982 8.93778 74.4683 8.28037C76.0371 7.62296 77.8347 7.29492 79.8612 7.29492C81.1165 7.29492 82.4406 7.44042 83.8321 7.73011C85.2236 8.02111 86.5834 8.4854 87.9101 9.12429L85.7607 14.6494C84.8136 14.1997 83.8533 13.8201 82.8824 13.5119C81.9115 13.2037 80.881 13.0502 79.7911 13.0502L79.7898 13.0529Z" fill="#1574E5"/>
<path d="M103.579 13.1602C103.958 13.1602 104.354 13.1866 104.77 13.2395C105.184 13.2924 105.492 13.3374 105.693 13.3731L105.071 19.9287C104.847 19.8692 104.556 19.8189 104.201 19.7779C103.845 19.7369 103.348 19.7157 102.709 19.7157C102.271 19.7157 101.803 19.7567 101.306 19.8401C100.808 19.9234 100.337 20.098 99.8929 20.3639C99.4484 20.6297 99.0847 21.0332 98.8003 21.5715C98.5159 22.1112 98.3743 22.8361 98.3743 23.7475V33.643H91.4272V13.516H96.5979L97.6812 16.7316H98.0185C98.3849 16.0689 98.8558 15.467 99.4312 14.9287C100.005 14.3903 100.651 13.9604 101.368 13.6403C102.085 13.3202 102.821 13.1602 103.579 13.1602Z" fill="#1574E5"/>
<path d="M117.562 13.1602C119.516 13.1602 121.204 13.5014 122.626 14.1813C124.048 14.8625 125.143 15.8837 125.913 17.2461C126.683 18.6086 127.067 20.3136 127.067 22.3625V25.4538H114.648C114.708 26.508 115.102 27.3731 115.829 28.0477C116.558 28.7223 117.632 29.061 119.054 29.061C120.31 29.061 121.462 28.9366 122.509 28.6879C123.557 28.4393 124.638 28.0543 125.751 27.5332V32.5252C124.78 33.0345 123.72 33.4075 122.571 33.6443C121.422 33.8811 119.971 34.0001 118.218 34.0001C116.193 34.0001 114.381 33.639 112.782 32.9168C111.183 32.1945 109.925 31.0755 109.007 29.5583C108.089 28.0424 107.63 26.094 107.63 23.7131C107.63 21.3321 108.044 19.3096 108.873 17.7527C109.702 16.1959 110.862 15.0411 112.356 14.2885C113.848 13.5358 115.583 13.1602 117.561 13.1602H117.562ZM117.811 17.8863C116.993 17.8863 116.31 18.1443 115.759 18.6588C115.209 19.1747 114.886 19.9829 114.791 21.0834H120.761C120.749 20.4908 120.63 19.9525 120.405 19.467C120.18 18.9816 119.851 18.5967 119.419 18.3123C118.987 18.0279 118.451 17.8863 117.811 17.8863Z" fill="#1574E5"/>
<path d="M140.819 13.1602C143.365 13.1602 145.354 13.7911 146.788 15.0517C148.221 16.3136 148.938 18.1112 148.938 20.4445V33.6456H144.123L142.791 30.9803H142.649C142.081 31.6906 141.497 32.2686 140.899 32.7131C140.302 33.1575 139.618 33.4829 138.848 33.6906C138.078 33.8983 137.136 34.0014 136.022 34.0014C134.909 34.0014 133.819 33.7647 132.896 33.2911C131.972 32.8176 131.243 32.1006 130.71 31.1416C130.177 30.1826 129.911 28.9684 129.911 27.5001C129.911 25.344 130.657 23.7461 132.149 22.7025C133.642 21.6602 135.803 21.0742 138.635 20.9432L141.993 20.8361V20.5517C141.993 19.6522 141.771 19.012 141.327 18.6324C140.882 18.2541 140.287 18.0636 139.541 18.0636C138.747 18.0636 137.862 18.2025 136.885 18.4816C135.907 18.7607 134.927 19.1178 133.944 19.557L131.937 14.9736C133.097 14.3811 134.411 13.9313 135.881 13.6231C137.349 13.3149 138.996 13.1615 140.82 13.1615L140.819 13.1602ZM142.028 24.6549L140.429 24.7263C139.149 24.7739 138.253 24.9961 137.737 25.393C137.221 25.7898 136.964 26.3559 136.964 27.0901C136.964 27.7766 137.148 28.2832 137.515 28.6086C137.881 28.934 138.368 29.0967 138.971 29.0967C139.812 29.0967 140.532 28.8308 141.13 28.2977C141.728 27.7647 142.026 27.0715 142.026 26.2184V24.6549H142.028Z" fill="#1574E5"/>
<path d="M161.997 7.29785C163.714 7.29785 165.222 7.52933 166.519 7.99097C167.816 8.45261 168.831 9.15499 169.566 10.0968C170.3 11.0386 170.668 12.2198 170.668 13.6418C170.668 14.6841 170.475 15.5994 170.09 16.3865C169.705 17.1748 169.177 17.8613 168.509 18.4473C167.84 19.0333 167.068 19.5399 166.191 19.9658C167.008 20.4275 167.819 20.9672 168.624 21.5822C169.43 22.1986 170.099 22.9235 170.632 23.7582C171.165 24.5928 171.431 25.5849 171.431 26.7344C171.431 28.1206 171.094 29.3613 170.418 30.4566C169.743 31.5518 168.706 32.4169 167.308 33.0505C165.91 33.6841 164.117 34.0016 161.925 34.0016C159.733 34.0016 157.939 33.7 156.541 33.0955C155.143 32.491 154.116 31.6471 153.459 30.5637C152.802 29.4804 152.474 28.2277 152.474 26.8058C152.474 25.5981 152.677 24.5796 153.086 23.7502C153.495 22.9209 154.054 22.2158 154.765 21.6365C155.475 21.0558 156.286 20.5346 157.199 20.073C156.476 19.5875 155.812 19.0373 155.209 18.4209C154.605 17.8058 154.126 17.1008 153.77 16.3071C153.414 15.5135 153.237 14.614 153.237 13.6061C153.237 12.2092 153.61 11.0412 154.356 10.1061C155.102 9.17087 156.135 8.46849 157.456 8.00023C158.777 7.53198 160.29 7.29785 161.996 7.29785H161.997ZM158.906 26.5214C158.906 27.2436 159.167 27.8309 159.688 28.2807C160.209 28.7304 160.931 28.9553 161.856 28.9553C162.934 28.9553 163.724 28.7516 164.228 28.3428C164.73 27.9341 164.983 27.3746 164.983 26.6643C164.983 26.1312 164.825 25.6484 164.512 25.2158C164.199 24.7833 163.833 24.4076 163.419 24.0875C163.004 23.7674 162.643 23.5188 162.336 23.3415L161.856 23.0571C161.323 23.3296 160.835 23.6352 160.39 23.9725C159.946 24.3098 159.587 24.6894 159.315 25.11C159.042 25.5307 158.906 26.0016 158.906 26.5227V26.5214ZM161.962 12.3613C161.381 12.3613 160.878 12.5307 160.451 12.868C160.025 13.2053 159.811 13.6643 159.811 14.2449C159.811 14.6246 159.902 14.9764 160.086 15.3018C160.27 15.6272 160.519 15.9262 160.832 16.1986C161.146 16.4711 161.499 16.7198 161.889 16.9447C162.233 16.7436 162.57 16.524 162.902 16.2873C163.234 16.0505 163.512 15.7661 163.737 15.4341C163.962 15.1021 164.074 14.7053 164.074 14.2436C164.074 13.6629 163.864 13.2039 163.443 12.8666C163.023 12.5293 162.528 12.36 161.959 12.36L161.962 12.3613Z" fill="#1574E5"/>
</g>
<defs>
<clipPath id="clip0_1799_26152">
<rect width="171.431" height="28" fill="white" transform="translate(0 6)"/>
</clipPath>
</defs>
</svg>

<svg xmlns="http://www.w3.org/2000/svg" width="224" height="40" fill="none"><g fill="#1574E5" clip-path="url(#a)"><path d="M18.193 25.757q0 2.114-1.066 4.006-1.065 1.893-3.313 3.065Q11.564 34 8.014 34a27 27 0 0 1-3.118-.16 14 14 0 0 1-2.497-.524q-1.155-.364-2.398-.95V26.11q2.114 1.066 4.265 1.626 2.149.56 3.891.56 1.048 0 1.715-.25.666-.248.985-.683.32-.435.32-1.004 0-.675-.47-1.146-.471-.47-1.502-.985a80 80 0 0 0-2.718-1.28 27 27 0 0 1-2.603-1.385 8.9 8.9 0 0 1-1.99-1.626 6.4 6.4 0 0 1-1.27-2.142Q.18 16.57.18 14.901q0-2.504 1.234-4.203Q2.648 9.003 4.861 8.15q2.212-.854 5.109-.854 2.54 0 4.575.57 2.034.567 3.65 1.297l-2.149 5.42a22.5 22.5 0 0 0-3.287-1.218q-1.618-.452-3.002-.453-.908 0-1.484.222-.578.222-.854.595a1.4 1.4 0 0 0-.275.853q0 .605.471 1.083.471.48 1.58 1.04 1.111.56 3.03 1.449 1.9.852 3.234 1.838 1.333.987 2.034 2.363.703 1.376.703 3.402zM30.861 13.16q2.931 0 5.064 1.021a7.3 7.3 0 0 1 3.287 3.065q1.155 2.044 1.154 5.117v3.09H27.947q.09 1.582 1.181 2.595 1.094 1.012 3.225 1.013 1.883 0 3.455-.373a17 17 0 0 0 3.242-1.155v4.992q-1.456.765-3.18 1.12-1.724.354-4.353.355-3.037 0-5.436-1.083t-3.775-3.359q-1.377-2.274-1.377-5.845c0-2.38.414-4.403 1.243-5.96q1.244-2.336 3.483-3.464 2.238-1.13 5.205-1.129zm.249 4.726q-1.226 0-2.052.773-.825.774-.968 2.424h5.97a4 4 0 0 0-.356-1.616 2.73 2.73 0 0 0-.986-1.155q-.648-.426-1.608-.426M51.24 33.646h-6.948V6h6.947zM63.001 33.646h-6.947V6h6.947zM79.79 13.053q-1.245 0-2.221.524-.978.524-1.67 1.518-.694.996-1.058 2.425-.364 1.43-.363 3.242 0 2.453.621 4.122t1.892 2.522 3.189.853q1.74 0 3.35-.48a34 34 0 0 0 3.241-1.155v5.934q-1.724.765-3.526 1.102a21 21 0 0 1-3.83.337q-4.227 0-6.92-1.678-2.692-1.68-3.962-4.664t-1.27-6.929q0-2.949.827-5.4.826-2.453 2.425-4.256t3.953-2.79q2.355-.985 5.393-.985 1.883 0 3.971.435 2.088.436 4.078 1.394l-2.15 5.525q-1.42-.675-2.878-1.137a10.2 10.2 0 0 0-3.09-.462zM103.579 13.16q.568 0 1.191.08.621.078.923.133l-.622 6.556a6 6 0 0 0-.87-.151 14 14 0 0 0-1.492-.062q-.657-.001-1.403.124a4 4 0 0 0-1.413.524q-.666.4-1.093 1.207-.426.81-.426 2.176v9.896h-6.947V13.516h5.17l1.084 3.216h.338a7.3 7.3 0 0 1 1.412-1.803 7 7 0 0 1 1.937-1.289 5.4 5.4 0 0 1 2.211-.48M117.562 13.16q2.931 0 5.064 1.021a7.3 7.3 0 0 1 3.287 3.065q1.154 2.044 1.154 5.117v3.09h-12.419q.09 1.582 1.181 2.595 1.093 1.012 3.225 1.013 1.884 0 3.455-.373a17 17 0 0 0 3.242-1.155v4.992q-1.457.765-3.18 1.12-1.724.354-4.353.355-3.038 0-5.436-1.083t-3.775-3.359q-1.377-2.274-1.377-5.845c0-2.38.414-4.403 1.243-5.96q1.243-2.336 3.483-3.464 2.238-1.13 5.205-1.129zm.249 4.726q-1.226 0-2.052.773-.825.774-.968 2.424h5.97a4 4 0 0 0-.356-1.616 2.7 2.7 0 0 0-.986-1.155q-.648-.426-1.608-.426M140.819 13.16q3.819 0 5.969 1.892 2.15 1.893 2.15 5.393v13.2h-4.815l-1.332-2.665h-.142q-.853 1.066-1.75 1.733a6 6 0 0 1-2.051.978q-1.155.31-2.826.31c-1.113 0-2.203-.236-3.126-.71q-1.386-.71-2.186-2.15-.8-1.438-.799-3.64 0-3.234 2.238-4.799 2.239-1.563 6.486-1.759l3.358-.107v-.284q0-1.35-.666-1.92-.667-.568-1.786-.568-1.19 0-2.656.418t-2.941 1.075l-2.007-4.583q1.74-.89 3.944-1.35 2.203-.464 4.939-.463zm1.209 11.495-1.599.071q-1.919.072-2.692.667t-.773 1.697q0 1.03.551 1.519.55.488 1.456.488 1.262 0 2.159-.8.897-.799.896-2.079v-1.563zM161.997 7.298q2.576 0 4.522.693 1.945.693 3.047 2.106t1.102 3.545q0 1.563-.578 2.745a6.5 6.5 0 0 1-1.581 2.06 10.4 10.4 0 0 1-2.318 1.519 21 21 0 0 1 2.433 1.616 8.5 8.5 0 0 1 2.008 2.176q.8 1.253.799 2.976 0 2.08-1.013 3.723t-3.11 2.593q-2.096.951-5.383.952-3.287 0-5.384-.907-2.097-.906-3.082-2.531t-.985-3.758q0-1.811.612-3.056a6.3 6.3 0 0 1 1.679-2.113q1.065-.871 2.434-1.564a12.6 12.6 0 0 1-1.99-1.652 7.2 7.2 0 0 1-1.439-2.114q-.533-1.19-.533-2.7 0-2.098 1.119-3.5 1.119-1.404 3.1-2.107 1.981-.702 4.54-.702zm-3.091 19.223q0 1.085.782 1.76.781.674 2.168.674 1.617 0 2.372-.612.754-.613.755-1.679 0-.8-.471-1.448a5.5 5.5 0 0 0-1.093-1.129q-.623-.48-1.083-.745l-.48-.285a10 10 0 0 0-1.466.916 4.5 4.5 0 0 0-1.075 1.137 2.54 2.54 0 0 0-.409 1.413zm3.056-14.16q-.871 0-1.511.507-.64.505-.64 1.377 0 .569.275 1.057.276.487.746.897.471.407 1.057.746.515-.302 1.013-.658.498-.354.835-.853.337-.498.337-1.19 0-.871-.631-1.377a2.3 2.3 0 0 0-1.484-.507z"/></g><defs><clipPath id="a"><path fill="#fff" d="M0 6h171.431v28H0z"/></clipPath></defs></svg>
